X:29
T: Reel St. Antoine
R: reel
M: C|
K: A
(3efg |: "A"a2aa aece | agab aece | agfe dcBA | "Bm"GABc "E7"B2(3efg |
"A"a2aa aece | agab aece |"D" agfe dcBA | "E7"GABG "A"A3 :|
|:AB| "A"c2cc cBce | dcBA GABc | "Bm"d2dd dcdf |"E7" edcB AGAB |
  "A"c2cc cBce | dcBA GABc | "D"defg "(Bm)"afed|"E7"cABc "A"A2 :|
